X:109
T:Heave Away Cheerily O!
M:6/8
L:1/8
Q:1/4=3D110
K:Ab
E2E|\
A2A ABc|d2B G3 |ABc BGE|A3 B2c|
dcB dcB|cBA (cB)A|BAG BAG|(A3 e2)d|
c>BA B>EB|A3- A2z||
d>dd dcB|c>cc cBA|B>BB BAG||A3 e2E/E|
AAA B2B/B/|ccc d2B|c>BA BEB|A3||
